src/devices/symbolic/video-single-display-symbolic.svg

<svg width="16" height="16" version="1.1" xmlns="http://www.w3.org/2000/svg">
 <path d="m1 1c-0.554 0-1 0.446-1 1v11c0 0.554 0.446 1 1 1h14c0.554 0 1-0.446 1-1v-11c0-0.554-0.446-1-1-1h-14zm0 1h14v11h-14v-11zm7 3c-0.18 0.608-0.525 0.922-1 1v1h1v3h1v-5h-1zm-3 10v1h6v-1h-6z" fill="#363636"/>
</svg>

<svg xmlns="http://www.w3.org/2000/svg" width="16" height="16">
    <path fill="#050505" fill-opacity=".7" d="M1 1c-.554 0-1 .446-1 1v11c0 .554.446 1 1 1h14c.554 0 1-.446 1-1V2c0-.554-.446-1-1-1H1zm0 1h14v11H1V2zm7 3c-.18.608-.525.922-1 1v1h1v3h1V5H8zM5 15v1h6v-1H5z"/>
</svg>
